!! 00000] TT[WS
!!!OTL: Ping diao
!!!ARE: Asia, China, Shanxi Qinyuan
!! Ethnic Group: Han
!! WII, 128 (1)
!!!SCT: J0597
!!!YEM: Copyright 1995, estate of Helmut Schaffrath.
**kern
*ICvox
*Ivox
*M2/4
*k[b-]
*F:
{8.cc
16cc
8cc
8cc
=1
8ff
8ff
8dd
8ff
=2
8.gg
16ff
8ff
8dd
=3
8gg
8ccc
8gg
8ff}
=4
{8dd
8cc
8dd
8a
=5
4cc
4ff
=6
8.dd
16cc
8a
8g
=7
2f}
=8
{8.cc
16a
8g
8f
=9
8g
4cc
8a
=10
8cc
8a
8g
8f
=11
8g
8a
4g}
=12
{8.cc
16cc
8cc
8cc
=13
8ff
8ff
8dd
8ff
=14
8.gg
16ccc
8gg
8dd
=15
2cc}
==
!!!AGN: Xiaodiao. Qingge, Aisu
!!!ONB: ESAC (Essen Associative Code) Database: CHINA
!!!AMT: simple duple
!!!AIN: vox
!!!EED: Helmut Schaffrath
!!!EEV: 1.0
*-
